X:1
T:Title
%%score ( 1 2 ) { 3 | 4 }
L:1/8
Q:1/4=100
M:4/4
K:Ab
V:1 treble nm="Grand Piano, Soprano"
V:2 treble 
V:3 bass nm="Choir Pad, Maplewood, LMD"
V:4 bass 
V:1
 [CE]2 [CA]2- [CA][DB][Ec][EA] | [FA][DF] [CE]6 | E-[EB] [Ac]2- [Ac][Ac][Ad][Ac] | [Ac]A [GB]6 | %4
w: Generated~by~NoteWorthy~Composer * * * * *||||
 [EB]2 [=Ec]2- [Ec][CB][CA][CA] | [Fc][_Ge] [Fd]6 | [Fd]2 [Ec]2- [Ec][DB][CA][Ec] | %7
w: |||
 [DB][DG] [CA]6 | [Ec]2 [Ae]2- [Ae][Ec][EA][DG] | [CA][FB] [=Ec]6 | %10
w: |||
 [=Ec]2 [Fc]2- [Fc][Fc][FB][FB] | [Fc][F=d] [Ee]6 | [Ed]2 [Ec]2- [Ec][EB][EA]A | [GB][_Gc] [Fd]6 | %14
w: ||||
 [Ad]2 [Ac]2- [Ac][GB]A[Ac] | [GB][EG] [EA]6- | [EA]2 z2 z4 |] %17
w: |||
V:2
 x8 | x8 | .A2 z2 z4 | x8 | x8 | x8 | x8 | x8 | x8 | x8 | x8 | x8 | x8 | x8 | x8 | x8 | x8 |] %17
V:3
 A,2 A,2- A,A,A,A, | A,A, A,6 | CD E2- EEFE | E=D E6 | G,2 G,2- G,G,A,A, | A,A, A,6 | %6
 A,2 A,2- A,G,A,A, | G,B, A,6 | A,2[K:treble] C2- CA,CB, | A,F, G,6 | G,2 A,2- A,A,A,A, | %11
 A,A, G,6 | G,2 A,2- A,/ z/[K:treble] D CE | EE D6 | F2 E2- EDCE | DD C6- | C2 z2 z4 |] %17
V:4
 A,,2 A,,2- A,,A,,A,,C, | D,D, A,,6 | A,2 A,2- A,A,A,A, | A,F, E,6 | D,2 C,2- C,=E,F,F, | %5
 F,C, D,6 | D,2 E,2- E,E,E,E, | E,E, A,,6 | z2 A,4 A,E, | F,D, C,6 | C,2 F,2- F,F,B,,B,, | %11
 B,,B,, E,6 | E,2 z2 z G,A,C, | E,A, D,6 | D,2 E,2- E,E,E,E, | E,E, A,,6- | A,,2 z2 z4 |] %17

